X:1
M:6/8
K:A
eAA gfe|faf def|gBB d2e|GdG BAA|
eAA gfe|faf def|gBB ded|BAG [1A3:|[2AAB||
|:c2A cde|f2d fga|g2B d2e|GdG B2A|
efg afd|efd dec|deg gef|gfd d3:|